X: 21
T: Rakish Paddy
Z: Fernando Durbán Galnares
S: https://thesession.org/tunes/86#setting48262
R: reel
M: 4/4
L: 1/8
K: Dmix
|:AB|"Am"c2cB c2 AB|"Am"cBAG EF G2|"D"Add^c defe|"D"d^cAG FGAB|
"Am"c2cB c2 AB|"Am"cBAG EDCE|"D"DEFG ABcA|"D"dcAG FD:|
|:D2|"C"eg (3gag ag (3gag|"C"eggf ed^cd|"D"ea (3aba ba (3aba|"D"eaag egdg|
"C"eg (3gag ag (3gag|"D"fgfe defg|"D"afge fde^c|"D"d^cAG FD:|

